X:1
T:Crossbone Skully
M:2/4
L:1/8
K:D
 B| A2F-E| DD D2| F A- A2| B4-| B2d-B| A2 FE| D2 B,2| DD-D E| D4-|\
 D2 BA| FE D2| D2 DD| FA-A A| B4-| B2 dB| A2 FE| DB, B,B,| D2 D3.99999962500005/5.99999925000009 D3.99999962500005/5.99999925000009 E3.99999962500005/5.99999925000009|\
 D4-| DB AF| D2 D2| D2 D2| F2 AA| B4-| B2 dB| A2 F2| D2 B,B,| DD DE|\
 D4-| D2 z||

